X:1
T:Title
%%score { ( 1 3 ) | ( 2 4 5 ) }
L:1/8
M:3/4
K:Eb
V:1 treble nm="Grand Piano"
V:3 treble 
V:2 bass 
V:4 bass 
V:5 bass 
V:1
 z2 z z/[Q:1/4=100] [G,EG]/ [G,EG]>[A,FA] | [A,FA]>[G,EG] [G,EG]>[K:bass][G,CE] [G,CE]>[G,C] | %2
 [=B,D]4[K:treble] [G,C]2- | [G,C]3- [G,C]/[G,EG]/ [G,EG]>[A,FA] | %4
 [A,FA]>[G,EG] [G,EG]>[F=B] [FB]>d | d3- d/=B/ [Ec]2- | [Ec]3- [Ec]/c/ c>c | [Ec]>c c>c c>e | %8
 d>=B [Ec]4- | [Ec]>B [DB]>B B>B | [DB]>[DB] [DB]>_d c>=A | z2 z2 G>c | %12
 [Ec]>[Ec] [Ec]>[EG] [EG]>[EG] | [EG]>E E>E E2- |[M:7/8] EC[=B,D]- [B,D]- [B,D]3 | %15
[M:3/4] z2 z2 [EG]2- | [EG]2 z2 z2 | [EG]4 BB- | Bc [DB]4 | [DB] [DB]2 [Ec] [DB]2 | %20
 [Ec]2 [Ec] [Ec]2 [Ec] | [Ec]4 [Ec][Ec]- | [Ec][Ec] [Ec]4 | z2 z2 d2- | %24
[M:17/32] d/-<d/ z/4 z/4 z/4 z/4 z/4 z/4 z/4 z/4 z/4 z/4 z/4 z/ |] %25
V:2
 z2 z z/ C,/ C,>C, | C,>C, C,>C, C,>C, | z2 z z/ E/ C,2 | G,,E,, C,,>C, C,>C, | %4
 C,>C, C,>[G,,G,] [G,,G,]>[K:treble][G,=B,G] | [G,=B,F]3- [G,B,F]/[G,B,F]/[K:bass] z2 | %6
 G,2 z z/ E/ E>E | z z/[K:treble] E/ E>E E>G | G>F[K:bass] z2 E,2 | G,>D z z/ D/ D>D | %10
 [G,,D,]>[G,,D,] [G,,D,]2 z2 | [G,B,D]4 z z/ E/ | [C,G,]>[C,G,] [C,G,]>[C,G,] [C,G,]>[C,G,] | %13
 [C,G,]>[C,G,C] [C,G,C]>[C,G,C] [C,G,C]2- |[M:7/8] [C,G,C] z G, D, G,,3 |[M:3/4] C, C,2 C, z2 | %16
 z E, C, C,2 [C,G,] | C,E, G,2 [G,B,D][G,B,D]- | [G,B,D][G,CE] [B,,F,]4 | %19
 [B,,F,] [B,,F,]2 [C,G,] [B,,F,]2 | [C,G,]2 [C,G,] [C,G,]2 [C,G,] | [C,G,]4 [C,G,][C,G,]- | %22
 [C,G,][C,G,] [C,G,]4 | [C,G,][K:treble] [G,CG]2 [G,CE] [=B,F]2- | %24
[M:17/32] [B,F]/-<[B,F]/[G,=B,F]/-<[G,B,F]/[K:bass][C,,C,]/4-[C,,C,]/4-[C,,C,]/4-[C,,C,]/4-[C,,C,]/4-[C,,C,]/-<[C,,C,]/ |] %25
V:3
 x6 | x7/2[K:bass] x5/2 | D,2 z2[K:treble] z2 | x6 | x6 | x6 | x6 | x6 | x6 | x6 | x6 | B6 | x6 | %13
 x6 |[M:7/8] x7 |[M:3/4] [G,EG] [G,EG]2 [A,FA] G,2- | G, z [G,EG] [G,EG]2 [FA] | x6 | x6 | x6 | %20
 x6 | x6 | x6 | [Ec] e2 c z2 | %24
[M:17/32] G,,/-<G,,/=B/-<B/[Ec]/4-[Ec]/4-[Ec]/4-[Ec]/4-[Ec]/4-[Ec]/-<[Ec]/ |] %25
V:4
 x6 | x6 | z2 G,2 z2 | x6 | x11/2[K:treble] x/ | x4[K:bass] x2 | z2 C4 | [C,C]6[K:treble] | %8
 [G,=B,]2[K:bass] C,4- | C,2 [G,,G,]4 | x6 | x6 | x6 | x6 |[M:7/8] x7 |[M:3/4] z2 z2 C,2- | %16
 C,2 z2 z2 | x6 | x6 | x6 | x6 | x6 | x6 | z2[K:treble] z2 G,2 |[M:17/32] x2[K:bass] x9/4 |] %25
V:5
 x6 | x6 | G,,4 z2 | x6 | x11/2[K:treble] x/ | z2 z2[K:bass] C,2- | C,6 | x3/2[K:treble] x9/2 | %8
 x2[K:bass] x4 | x6 | x6 | x6 | x6 | x6 |[M:7/8] x7 |[M:3/4] x6 | x6 | x6 | x6 | x6 | x6 | x6 | %22
 x6 | x[K:treble] x5 |[M:17/32] x2[K:bass] x9/4 |] %25

